X: 1
T: Virdiefield
C: Debbie Scott 2010-09-24
R: jig
Z: 2018 John Chambers <jc:trillian.mit.edu>
F: http://ramshaw.info/slowjamtunes/HTML/Tunes_V/Virdiefield.html
M: C|
L: 1/8
K: Am
|:\
"C"E2C "G7"FDB, | "G7"G,A,B, "C"CEG | "C"c3 cBc | "G"dBA Gcd | "C"ecc "F"AFF |
"E/C"GEE "Dm"FDD | "C"EDE CDE | [1 "G7"FDB, G,A,B, :| [2 "G7"FDB, "C"CEG |]
|:\
"G7"[B3F3] BAG | "G7"FDB, "C"CEG | "C"cEG cBc | "G"dBA Gcd |
[1 "C"ecc "F"AFF | "E/C"GEE "Dm"FDD | "C"EDE CDE | "G7"FDB, "C"CEG :|
[2 "C"ecc "Dm7"fdd | "E/C"gee "F"agf | "G/C"edc "G7"BFD | "G7"B,A,B, "C"C3 |]
